X: 382
T: Paraliakos
O: Greece
F: http://www.youtube.com/watch?v=v1BlLBZzKrQ
M: 4/4
L: 1/8
Q: 1/4=96
K: Ab
|:"Ab"zEAA c2c3/2B/|cdef e2dc    |"Eb"BBBB- B3A|"Ab"c3B c2A2::
  "Eb"B4 B3d       |"Ab"cBAB GEF2|[1EFGA FGA2  :|[2 EA2A A3|



